dist/img/fast_secure.svg

<?xml version="1.0" encoding="UTF-8"?>
<svg width="506px" height="315px" viewBox="0 0 506 315" version="1.1" xmlns="http://www.w3.org/2000/svg" xmlns:xlink="http://www.w3.org/1999/xlink">
    <!-- Generator: Sketch 54.1 (76490) - https://sketchapp.com -->
    <title>images/Fast&amp;Secure</title>
    <desc>Created with Sketch.</desc>
    <defs>
        <filter x="-2.1%" y="-3.4%" width="104.2%" height="106.8%" filterUnits="objectBoundingBox" id="filter-1">
            <feOffset dx="0" dy="2" in="SourceAlpha" result="shadowOffsetOuter1"></feOffset>
            <feGaussianBlur stdDeviation="1.5" in="shadowOffsetOuter1" result="shadowBlurOuter1"></feGaussianBlur>
            <feColorMatrix values="0 0 0 0 0   0 0 0 0 0   0 0 0 0 0  0 0 0 0.15 0" type="matrix" in="shadowBlurOuter1" result="shadowMatrixOuter1"></feColorMatrix>
            <feMerge>
                <feMergeNode in="shadowMatrixOuter1"></feMergeNode>
                <feMergeNode in="SourceGraphic"></feMergeNode>
            </feMerge>
        </filter>
        <polygon id="path-2" points="0.264553015 0.395353535 399.640852 0.395353535 399.640852 292.170528 0.264553015 292.170528"></polygon>
        <polygon id="path-4" points="0 309 499.692308 309 499.692308 0.395353535 0 0.395353535"></polygon>
    </defs>
    <g id="HP" stroke="none" stroke-width="1" fill="none" fill-rule="evenodd">
        <g transform="translate(-234.000000, -1312.000000)" id="Benefits">
            <g transform="translate(-182.000000, 740.000000)">
                <g id="images/Fast&amp;Secure" transform="translate(419.000000, 573.000000)">
                    <g id="Fast-&amp;-secure" filter="url(#filter-1)">
                        <g id="Group-15">
                            <g id="Group-3" transform="translate(49.896050, 0.000000)">
                                <mask id="mask-3" fill="white">
                                    <use xlink:href="#path-2"></use>
                                </mask>
                                <g id="Clip-2"></g>
                                <path d="M399.640852,280.933124 C399.640852,287.151619 394.611746,292.170528 388.428794,292.170528 L11.4724532,292.170528 C5.28950104,292.170528 0.264553015,287.151619 0.264553015,280.933124 L0.264553015,11.6349424 C0.264553015,5.41748788 5.28950104,0.394417172 11.4724532,0.394417172 L388.428794,0.394417172 C394.611746,0.394417172 399.640852,5.41748788 399.640852,11.6349424 L399.640852,280.933124 Z" id="Fill-1" fill="#FFFFFF" mask="url(#mask-3)"></path>
                            </g>
                            <mask id="mask-5" fill="white">
                                <use xlink:href="#path-4"></use>
                            </mask>
                            <g id="Clip-5"></g>
                            <polygon id="Fill-4" fill="#191551" mask="url(#mask-5)" points="68.6008316 266.915657 431.586279 266.915657 431.586279 20.0381818 68.6008316 20.0381818"></polygon>
                            <path d="M-0.000103950104,283.74492 C1.48950104,297.874647 16.2888773,308.999688 34.499896,308.999688 L465.185967,308.999688 C483.40738,308.999688 498.196362,297.874647 499.693243,283.74492 L-0.000103950104,283.74492 Z" id="Fill-6" fill="#EFEFEF" mask="url(#mask-5)"></path>
                            <polygon id="Fill-7" fill="#CCCCCC" mask="url(#mask-5)" points="183.975052 292.170424 315.718295 292.170424 315.718295 283.744192 183.975052 283.744192"></polygon>
                            <path d="M305.979626,78.0335283 L249.84657,49.9426192 L193.713514,78.0335283 C185.396466,164.908306 249.84657,179.994165 249.84657,179.994165 C249.84657,179.994165 314.296674,164.908306 305.979626,78.0335283" id="Fill-8" fill="#EDB720" mask="url(#mask-5)"></path>
                            <path d="M298.79501,82.7610202 L249.846985,58.2657475 L200.897921,82.7610202 C193.646362,158.51596 249.846985,171.670828 249.846985,171.670828 C249.846985,171.670828 306.047609,158.51596 298.79501,82.7610202" id="Fill-9" fill="#FCCA2E" mask="url(#mask-5)"></path>
                            <path d="M249.506549,171.670828 C249.506549,171.670828 193.305925,158.51596 200.558524,82.7610202 L249.506549,58.2657475 L249.506549,171.670828 Z" id="Fill-10" fill="#FCCA2E" mask="url(#mask-5)"></path>
                            <path d="M237.891892,119.078612 C236.599792,119.078612 235.553015,118.030925 235.553015,116.737703 L235.553015,93.3005212 C235.553015,86.9270061 241.652807,81.9351475 249.438669,81.9351475 L250.168399,81.9351475 C257.836798,81.9351475 263.619543,86.8208848 263.619543,93.3005212 L263.619543,116.181087 C263.619543,117.474309 262.572765,118.521996 261.280665,118.521996 C259.989605,118.521996 258.941788,117.474309 258.941788,116.181087 L258.941788,93.3005212 C258.941788,89.4905616 255.170478,86.6169657 250.168399,86.6169657 L249.438669,86.6169657 C244.361746,86.6169657 240.230769,89.6154101 240.230769,93.3005212 L240.230769,116.737703 C240.230769,118.030925 239.183992,119.078612 237.891892,119.078612" id="Fill-11" fill="#191551" mask="url(#mask-5)"></path>
                            <path d="M268.215073,134.360587 C268.215073,137.286203 265.766008,139.821668 262.321102,139.821668 L236.852287,139.821668 C233.40842,139.821668 230.457277,137.286203 230.457277,134.360587 L230.457277,112.732668 C230.457277,109.808092 233.40842,107.478627 236.852287,107.478627 L262.321102,107.478627 C265.766008,107.478627 268.215073,109.808092 268.215073,112.732668 L268.215073,134.360587 Z" id="Fill-12" fill="#191551" mask="url(#mask-5)"></path>
                            <path d="M253.354886,119.476983 C253.354886,117.657316 251.880873,116.182023 250.062786,116.182023 L249.890229,116.182023 C248.071102,116.182023 246.598129,117.657316 246.598129,119.476983 L246.598129,119.65073 C246.598129,121.470397 248.071102,122.944649 249.890229,122.944649 L250.062786,122.944649 C251.880873,122.944649 253.354886,121.470397 253.354886,119.65073 L253.354886,119.476983 Z" id="Fill-13" fill="#FFFFFF" mask="url(#mask-5)"></path>
                            <path d="M251.535759,130.227894 C251.535759,131.090389 250.838254,131.7885 249.976507,131.7885 C249.114761,131.7885 248.417256,131.090389 248.417256,130.227894 L248.417256,121.38446 C248.417256,120.521965 249.114761,119.823854 249.976507,119.823854 C250.838254,119.823854 251.535759,120.521965 251.535759,121.38446 L251.535759,130.227894 Z" id="Fill-14" fill="#FFFFFF" mask="url(#mask-5)"></path>
                        </g>
                        <text id="100%" font-family="Helvetica" font-size="35" font-weight="normal" fill="#FFFFFF">
                            <tspan x="307" y="229">100%</tspan>
                        </text>
                        <path d="M282.963194,208 L109.684692,208 L109.684692,208.017594 C104.306385,208.202846 100,212.595084 100,218.000517 C100,223.404916 104.306385,227.796119 109.684692,227.982406 L109.684692,228 L282.963194,228 C288.505613,228 293,223.522898 293,218.000517 C293,212.477102 288.505613,208 282.963194,208" id="Fill-16" fill="#03E59F"></path>
                    </g>
                </g>
            </g>
        </g>
    </g>
</svg>

<svg width="506" height="315" xmlns="http://www.w3.org/2000/svg" xmlns:xlink="http://www.w3.org/1999/xlink"><defs><path id="path-2" d="M.265.395H399.64v291.776H.265z"/><path id="path-4" d="M0 309h499.692V.395H0z"/><filter x="-2.1%" y="-3.4%" width="104.2%" height="106.8%" filterUnits="objectBoundingBox" id="filter-1"><feOffset dy="2" in="SourceAlpha" result="shadowOffsetOuter1"/><feGaussianBlur stdDeviation="1.5" in="shadowOffsetOuter1" result="shadowBlurOuter1"/><feColorMatrix values="0 0 0 0 0 0 0 0 0 0 0 0 0 0 0 0 0 0 0.15 0" in="shadowBlurOuter1" result="shadowMatrixOuter1"/><feMerge><feMergeNode in="shadowMatrixOuter1"/><feMergeNode in="SourceGraphic"/></feMerge></filter></defs><g id="HP" stroke="none" stroke-width="1" fill="none" fill-rule="evenodd"><g transform="translate(-416 -572)" id="Benefits"><g id="images/Fast&amp;Secure" transform="translate(419 573)"><g id="Fast-&amp;-secure" filter="url(#filter-1)"><g id="Group-15"><g id="Group-3" transform="translate(49.896)"><mask id="mask-3" fill="#fff"><use xlink:href="#path-2"/></mask><path d="M399.64 280.933c0 6.219-5.028 11.238-11.211 11.238H11.472c-6.182 0-11.207-5.02-11.207-11.238V11.635C.265 5.417 5.29.395 11.472.395H388.43c6.183 0 11.212 5.022 11.212 11.24v269.298z" id="Fill-1" fill="#FFF" mask="url(#mask-3)"/></g><mask id="mask-5" fill="#fff"><use xlink:href="#path-4"/></mask><path id="Fill-4" fill="#191551" mask="url(#mask-5)" d="M68.6 266.916h362.986V20.038H68.601z"/><path d="M0 283.745C1.49 297.875 16.289 309 34.5 309h430.686c18.221 0 33.01-11.125 34.507-25.255H0z" id="Fill-6" fill="#EFEFEF" mask="url(#mask-5)"/><path id="Fill-7" fill="#CCC" mask="url(#mask-5)" d="M183.975 292.17h131.743v-8.426H183.975z"/><path d="M305.98 78.034l-56.133-28.091-56.133 28.09c-8.318 86.875 56.133 101.961 56.133 101.961s64.45-15.086 56.133-101.96" id="Fill-8" fill="#EDB720" mask="url(#mask-5)"/><path d="M298.795 82.761l-48.948-24.495-48.95 24.495c-7.25 75.755 48.95 88.91 48.95 88.91s56.2-13.155 48.948-88.91" id="Fill-9" fill="#FCCA2E" mask="url(#mask-5)"/><path d="M249.507 171.67s-56.201-13.154-48.948-88.909l48.948-24.495V171.67z" id="Fill-10" fill="#FCCA2E" mask="url(#mask-5)"/><path d="M237.892 119.079a2.34 2.34 0 01-2.339-2.341V93.3c0-6.374 6.1-11.366 13.886-11.366h.73c7.668 0 13.45 4.886 13.45 11.366v22.88a2.34 2.34 0 11-4.677 0V93.3c0-3.81-3.772-6.684-8.774-6.684h-.73c-5.076 0-9.207 2.998-9.207 6.684v23.437a2.34 2.34 0 01-2.34 2.34" id="Fill-11" fill="#191551" mask="url(#mask-5)"/><path d="M268.215 134.36c0 2.926-2.449 5.462-5.894 5.462h-25.469c-3.444 0-6.395-2.536-6.395-5.461v-21.628c0-2.925 2.951-5.254 6.395-5.254h25.47c3.444 0 5.893 2.33 5.893 5.254v21.628z" id="Fill-12" fill="#191551" mask="url(#mask-5)"/><path d="M253.355 119.477a3.294 3.294 0 00-3.292-3.295h-.173a3.293 3.293 0 00-3.292 3.295v.174a3.292 3.292 0 003.292 3.294h.173a3.293 3.293 0 003.292-3.294v-.174z" id="Fill-13" fill="#FFF" mask="url(#mask-5)"/><path d="M251.536 130.228a1.56 1.56 0 11-3.119 0v-8.844a1.56 1.56 0 113.119 0v8.844z" id="Fill-14" fill="#FFF" mask="url(#mask-5)"/></g><text id="100%" font-family="Helvetica" font-size="35" font-weight="normal" fill="#FFF"><tspan x="307" y="229">100%</tspan></text><path d="M282.963 208H109.685v.018c-5.379.185-9.685 4.577-9.685 9.983 0 5.404 4.306 9.795 9.685 9.981V228h173.278c5.543 0 10.037-4.477 10.037-10s-4.494-10-10.037-10" id="Fill-16" fill="#03E59F"/></g></g></g></g></svg>
